!!!OTL: MIR GEFAELLT DAS EHSTANDSLEBEN BESSER
!!!ARE: Europa, Mitteleuropa, Deutschland, Hessen, Odenwald; Bergstrasse
!!!SCT: E0868
!!!YEM: Copyright 1995, estate of Helmut Schaffrath.
**kern
*ICvox
*Ivox
!! Mixed meters:  2/4; 3/4
*M2/4
*k[f#]
*G:
=1
{4g
4d
=2
8e
8g
8f#
8g
=3
8.a
16b
4a
=4
4g
4a}
=5
*M3/4
{8b
16dd
16ee
16dd
16cc
16b
16a
8b
8g
=6
*M2/4
4e
4f#
=7
4g
4r}
=8
*M3/4
{4b
4dd
8cc
8cc
=9
8.a
16g
8f#
8g
4a}
=10
*M2/4
{4g
4a
=11
*M3/4
8b
16dd
16ee
16dd
16cc
16b
16a
8b
8g
=12
*M2/4
4e
4f#
=13
4g
4r}
==
!!!AGN: Hochzeits -, Ehestands - Lied
!!!ONB: ESAC (Essen Associative Code) Database: ERK2
!!!AMT: irregular
!!!AIN: vox
!!!EED: Helmut Schaffrath
!!!EEV: 1.0
*-
